X: 164
T:Et incarnatus est
N: Derived from Jos1313-Et_incarnatus_est.krn
C: Josquin des Prez
%%abc-version 2.0
%%abcx-abcm2ps-target-version 5.9.1 (29 Sep 2008)
%%abc-creator hum2abc beta
%%abcx-conversion-date 2019/02/12 16:15:46
%%abc-edited-by Jesse Rodin
%%abc-edited-by Jesse Rodin 8/17/2013
%%abcx-initial-encoding-date 2013/08/17/
%%humdrum-veritas 2069215068
%%humdrum-veritas-data 4213367966
%%linebreak <none>
%%barnumbers 0
L: 1/4
M: 2/1
Q: 1/2=120
%%staves {1 2}
V: 1 clef=treble
V: 2 clef=treble-8
K: C
[V:1] D4D2D2 | 
[V:2] z8 | 
[V:1] G4G4 | 
[V:2] G4G2G2 | 
[V:1] A2c4BA | 
[V:2] c4c4 | 
[V:1] B2A4GF | 
[V:2] d2f4ed | 
[V:1] G2A2D2A2- | 
[V:2] e2d4cB | 
[V:1] A2GFG2A2- | 
[V:2] c2d2G2d2- | 
[V:1] AGG4^F2 | 
[V:2] dcB2A4 | 
[V:1] G4z2A2 | 
[V:2] G4z4 | 
[V:1] A4A4 | 
[V:2] z2d2d4 | 
[V:1] B4B2AG | 
[V:2] d4e4- | 
[V:1] G4z2A2 | 
[V:2] e2dcc4 | 
[V:1] A2A2B2AG | 
[V:2] z2d2d2d2 | 
[V:1] G3ABcd2- | 
[V:2] e4d2fe | 
[V:1] d2c4B2 | 
[V:2] fedcd4 | 
[V:1] c4z2c2- | 
[V:2] c2f4f2 | 
[V:1] c2c2B4 | 
[V:2] e4d4 | 
[V:1] A4z2c2- | 
[V:2] z2f4f2 | 
[V:1] c2c2B4 | 
[V:2] e4d2d2- | 
[V:1] A2A4G2 | 
[V:2] d2c2B2B2 | 
[V:1] F4E3D | 
[V:2] A3GABc2- | 
[V:1] EFG4F2 | 
[V:2] c2B2A3B | 
[V:1] E2D4A2- | 
[V:2] c2BAG2A2 | 
[V:1] A2G4^F2 | 
[V:2] B2c2A4 | 
[V:1] G8 |]  
[V:2] G8 |]  



